images/portal/4919.svg

<?xml version="1.0" standalone="no"?><!DOCTYPE svg PUBLIC "-//W3C//DTD SVG 1.1//EN" "http://www.w3.org/Graphics/SVG/1.1/DTD/svg11.dtd"><svg xmlns:xlink="http://www.w3.org/1999/xlink" version="1.1" class="highcharts-root" style="font-family:arial;font-size:12px;" xmlns="http://www.w3.org/2000/svg" width="485" height="415"><desc>Created with Highstock 5.0.14</desc><defs><clipPath id="highcharts-i6a3v5q-6"><rect x="0" y="0" width="416" height="308" fill="none"></rect></clipPath><clipPath id="highcharts-i6a3v5q-7"><rect x="0" y="0" width="416" height="308" fill="none"></rect></clipPath></defs><rect fill="#fbfbfb" class="highcharts-background" x="0" y="0" width="485" height="415" rx="0" ry="0"></rect><rect fill="none" class="highcharts-plot-background" x="59" y="41" width="416" height="308"></rect><g class="highcharts-pane-group"></g><g class="highcharts-grid highcharts-xaxis-grid "><path fill="none" class="highcharts-grid-line" d="M 62.5 41 L 62.5 349" opacity="1"></path><path fill="none" class="highcharts-grid-line" d="M 144.5 41 L 144.5 349" opacity="1"></path><path fill="none" class="highcharts-grid-line" d="M 225.5 41 L 225.5 349" opacity="1"></path><path fill="none" class="highcharts-grid-line" d="M 307.5 41 L 307.5 349" opacity="1"></path><path fill="none" class="highcharts-grid-line" d="M 388.5 41 L 388.5 349" opacity="1"></path><path fill="none" class="highcharts-grid-line" d="M 470.5 41 L 470.5 349" opacity="1"></path></g><g class="highcharts-grid highcharts-yaxis-grid "><path fill="none" stroke="#B9CFD7" stroke-width="0.5" class="highcharts-grid-line" d="M 59 349.25 L 475 349.25" opacity="1"></path><path fill="none" stroke="#B9CFD7" stroke-width="0.5" class="highcharts-grid-line" d="M 59 298.25 L 475 298.25" opacity="1"></path><path fill="none" stroke="#B9CFD7" stroke-width="0.5" class="highcharts-grid-line" d="M 59 246.25 L 475 246.25" opacity="1"></path><path fill="none" stroke="#B9CFD7" stroke-width="0.5" class="highcharts-grid-line" d="M 59 195.25 L 475 195.25" opacity="1"></path><path fill="none" stroke="#B9CFD7" stroke-width="0.5" class="highcharts-grid-line" d="M 59 144.25 L 475 144.25" opacity="1"></path><path fill="none" stroke="#B9CFD7" stroke-width="0.5" class="highcharts-grid-line" d="M 59 92.25 L 475 92.25" opacity="1"></path><path fill="none" stroke="#B9CFD7" stroke-width="0.5" class="highcharts-grid-line" d="M 59 40.75 L 475 40.75" opacity="1"></path></g><rect fill="none" class="highcharts-plot-border" x="59" y="41" width="416" height="308"></rect><g class="highcharts-axis highcharts-xaxis "><path fill="none" class="highcharts-axis-line" stroke="#B9CFD7" stroke-width="0.5" d="M 59 349.25 L 475 349.25"></path></g><g class="highcharts-axis highcharts-yaxis "><path fill="none" class="highcharts-axis-line" d="M 59 41 L 59 349"></path></g><g class="highcharts-series-group"><g class="highcharts-series highcharts-series-0 highcharts-line-series highcharts-color-undefined " transform="translate(59,41) scale(1 1)" clip-path="url(#highcharts-i6a3v5q-7)"><path fill="none" d="M 4.078431372549 168.5992 L 20.392156862745 161.392 L 36.705882352941 157.62413333333333 L 53.019607843137 152.33679999999998 L 69.333333333333 146.18706666666665 L 85.647058823529 141.8956 L 101.96078431373 137.62466666666666 L 118.27450980392 133.3948 L 134.58823529412 129.49346666666665 L 150.90196078431 123.46693333333332 L 167.21568627451 118.30279999999999 L 183.52941176471 112.47133333333332 L 199.8431372549 107.79999999999998 L 216.1568627451 102.39973333333333 L 232.47058823529 95.60319999999999 L 248.78431372549 90.64439999999999 L 265.09803921569 85.05933333333331 L 281.41176470588 69.84413333333333 L 297.72549019608 62.10306666666665 L 314.03921568627 55.388666666666666 L 330.35294117647 49.88573333333335 L 346.66666666667 43.22266666666667 L 362.98039215686 37.22693333333331 L 379.29411764706 25.358666666666636 L 395.60784313725 19.53746666666666 L 411.92156862745 14.814799999999991" class="highcharts-graph" stroke="#008AC3" stroke-width="2" stroke-linejoin="round" stroke-linecap="round"></path></g><g class="highcharts-markers highcharts-series-0 highcharts-line-series highcharts-color-undefined " transform="translate(59,41) scale(1 1)" clip-path="none"><path fill="#008AC3" d="M 8 169 A 4 4 0 1 1 7.999998000000167 168.99600000066667 Z" class="highcharts-point"></path><path fill="#008AC3" d="M 24 161 A 4 4 0 1 1 23.99999800000017 160.99600000066667 Z" class="highcharts-point"></path><path fill="#008AC3" d="M 40 158 A 4 4 0 1 1 39.99999800000017 157.99600000066667 Z" class="highcharts-point"></path><path fill="#008AC3" d="M 57 152 A 4 4 0 1 1 56.99999800000017 151.99600000066667 Z" class="highcharts-point"></path><path fill="#008AC3" d="M 73 146 A 4 4 0 1 1 72.99999800000016 145.99600000066667 Z" class="highcharts-point"></path><path fill="#008AC3" d="M 89 142 A 4 4 0 1 1 88.99999800000016 141.99600000066667 Z" class="highcharts-point"></path><path fill="#008AC3" d="M 105 138 A 4 4 0 1 1 104.99999800000016 137.99600000066667 Z" class="highcharts-point"></path><path fill="#008AC3" d="M 122 133 A 4 4 0 1 1 121.99999800000016 132.99600000066667 Z" class="highcharts-point"></path><path fill="#008AC3" d="M 138 129 A 4 4 0 1 1 137.99999800000018 128.99600000066667 Z" class="highcharts-point"></path><path fill="#008AC3" d="M 154 123 A 4 4 0 1 1 153.99999800000018 122.99600000066667 Z" class="highcharts-point"></path><path fill="#008AC3" d="M 171 118 A 4 4 0 1 1 170.99999800000018 117.99600000066667 Z" class="highcharts-point"></path><path fill="#008AC3" d="M 187 112 A 4 4 0 1 1 186.99999800000018 111.99600000066667 Z" class="highcharts-point"></path><path fill="#008AC3" d="M 203 108 A 4 4 0 1 1 202.99999800000018 107.99600000066667 Z" class="highcharts-point"></path><path fill="#008AC3" d="M 220 102 A 4 4 0 1 1 219.99999800000018 101.99600000066667 Z" class="highcharts-point"></path><path fill="#008AC3" d="M 236 96 A 4 4 0 1 1 235.99999800000018 95.99600000066667 Z" class="highcharts-point"></path><path fill="#008AC3" d="M 252 91 A 4 4 0 1 1 251.99999800000018 90.99600000066667 Z" class="highcharts-point"></path><path fill="#008AC3" d="M 269 85 A 4 4 0 1 1 268.9999980000002 84.99600000066667 Z" class="highcharts-point"></path><path fill="#008AC3" d="M 285 70 A 4 4 0 1 1 284.9999980000002 69.99600000066667 Z" class="highcharts-point"></path><path fill="#008AC3" d="M 301 62 A 4 4 0 1 1 300.9999980000002 61.99600000066666 Z" class="highcharts-point"></path><path fill="#008AC3" d="M 318 55 A 4 4 0 1 1 317.9999980000002 54.99600000066666 Z" class="highcharts-point"></path><path fill="#008AC3" d="M 334 50 A 4 4 0 1 1 333.9999980000002 49.99600000066666 Z" class="highcharts-point"></path><path fill="#008AC3" d="M 350 43 A 4 4 0 1 1 349.9999980000002 42.99600000066666 Z" class="highcharts-point"></path><path fill="#008AC3" d="M 366 37 A 4 4 0 1 1 365.9999980000002 36.99600000066666 Z" class="highcharts-point"></path><path fill="#008AC3" d="M 383 25 A 4 4 0 1 1 382.9999980000002 24.996000000666665 Z" class="highcharts-point"></path><path fill="#008AC3" d="M 399 20 A 4 4 0 1 1 398.9999980000002 19.996000000666665 Z" class="highcharts-point"></path><path fill="#008AC3" d="M 415 15 A 4 4 0 1 1 414.9999980000002 14.996000000666664 Z" class="highcharts-point"></path></g></g><text x="10" text-anchor="start" class="highcharts-title" style="color:#000000;font-size:14px;font-weight:bold;fill:#000000;" y="21"><tspan>Grundpfandbelastung in Mio. Franken seit 1990</tspan></text><g class="highcharts-data-labels highcharts-series-0 highcharts-line-series highcharts-color-undefined " visibility="visible" transform="translate(59,41) scale(1 1)"><g class="highcharts-label highcharts-data-label highcharts-data-label-color-undefined " transform="translate(-5,146)"><text x="5" style="font-size:11px;font-weight:bold;color:#000000;fill:#000000;" y="16"><tspan x="5" y="16" class="highcharts-text-outline" fill="#FFFFFF" stroke="#FFFFFF" stroke-width="2px" stroke-linejoin="round">13 578</tspan><tspan x="5" y="16">13 578</tspan></text></g><g class="highcharts-label highcharts-data-label highcharts-data-label-color-undefined " transform="translate(15,151)" opacity="0" visibility="hidden"><text x="5" style="font-size:11px;font-weight:bold;color:#000000;fill:#000000;" y="16"></text></g><g class="highcharts-label highcharts-data-label highcharts-data-label-color-undefined " transform="translate(32,148)"><text x="5" style="font-size:11px;font-weight:bold;color:#000000;fill:#000000;" y="16"></text></g><g class="highcharts-label highcharts-data-label highcharts-data-label-color-undefined " transform="translate(48,142)"><text x="5" style="font-size:11px;font-weight:bold;color:#000000;fill:#000000;" y="16"></text></g><g class="highcharts-label highcharts-data-label highcharts-data-label-color-undefined " transform="translate(64,136)"><text x="5" style="font-size:11px;font-weight:bold;color:#000000;fill:#000000;" y="16"></text></g><g class="highcharts-label highcharts-data-label highcharts-data-label-color-undefined " transform="translate(81,132)"><text x="5" style="font-size:11px;font-weight:bold;color:#000000;fill:#000000;" y="16"></text></g><g class="highcharts-label highcharts-data-label highcharts-data-label-color-undefined " transform="translate(97,128)"><text x="5" style="font-size:11px;font-weight:bold;color:#000000;fill:#000000;" y="16"></text></g><g class="highcharts-label highcharts-data-label highcharts-data-label-color-undefined " transform="translate(113,123)"><text x="5" style="font-size:11px;font-weight:bold;color:#000000;fill:#000000;" y="16"></text></g><g class="highcharts-label highcharts-data-label highcharts-data-label-color-undefined " transform="translate(130,119)"><text x="5" style="font-size:11px;font-weight:bold;color:#000000;fill:#000000;" y="16"></text></g><g class="highcharts-label highcharts-data-label highcharts-data-label-color-undefined " transform="translate(146,113)"><text x="5" style="font-size:11px;font-weight:bold;color:#000000;fill:#000000;" y="16"></text></g><g class="highcharts-label highcharts-data-label highcharts-data-label-color-undefined " transform="translate(162,108)"><text x="5" style="font-size:11px;font-weight:bold;color:#000000;fill:#000000;" y="16"></text></g><g class="highcharts-label highcharts-data-label highcharts-data-label-color-undefined " transform="translate(179,102)"><text x="5" style="font-size:11px;font-weight:bold;color:#000000;fill:#000000;" y="16"></text></g><g class="highcharts-label highcharts-data-label highcharts-data-label-color-undefined " transform="translate(195,98)"><text x="5" style="font-size:11px;font-weight:bold;color:#000000;fill:#000000;" y="16"></text></g><g class="highcharts-label highcharts-data-label highcharts-data-label-color-undefined " transform="translate(211,92)"><text x="5" style="font-size:11px;font-weight:bold;color:#000000;fill:#000000;" y="16"></text></g><g class="highcharts-label highcharts-data-label highcharts-data-label-color-undefined " transform="translate(227,86)"><text x="5" style="font-size:11px;font-weight:bold;color:#000000;fill:#000000;" y="16"></text></g><g class="highcharts-label highcharts-data-label highcharts-data-label-color-undefined " transform="translate(244,81)"><text x="5" style="font-size:11px;font-weight:bold;color:#000000;fill:#000000;" y="16"></text></g><g class="highcharts-label highcharts-data-label highcharts-data-label-color-undefined " transform="translate(260,75)"><text x="5" style="font-size:11px;font-weight:bold;color:#000000;fill:#000000;" y="16"></text></g><g class="highcharts-label highcharts-data-label highcharts-data-label-color-undefined " transform="translate(276,60)"><text x="5" style="font-size:11px;font-weight:bold;color:#000000;fill:#000000;" y="16"></text></g><g class="highcharts-label highcharts-data-label highcharts-data-label-color-undefined " transform="translate(293,52)"><text x="5" style="font-size:11px;font-weight:bold;color:#000000;fill:#000000;" y="16"></text></g><g class="highcharts-label highcharts-data-label highcharts-data-label-color-undefined " transform="translate(309,45)"><text x="5" style="font-size:11px;font-weight:bold;color:#000000;fill:#000000;" y="16"></text></g><g class="highcharts-label highcharts-data-label highcharts-data-label-color-undefined " transform="translate(325,40)"><text x="5" style="font-size:11px;font-weight:bold;color:#000000;fill:#000000;" y="16"></text></g><g class="highcharts-label highcharts-data-label highcharts-data-label-color-undefined " transform="translate(342,33)"><text x="5" style="font-size:11px;font-weight:bold;color:#000000;fill:#000000;" y="16"></text></g><g class="highcharts-label highcharts-data-label highcharts-data-label-color-undefined " transform="translate(358,27)"><text x="5" style="font-size:11px;font-weight:bold;color:#000000;fill:#000000;" y="16"></text></g><g class="highcharts-label highcharts-data-label highcharts-data-label-color-undefined " transform="translate(374,15)"><text x="5" style="font-size:11px;font-weight:bold;color:#000000;fill:#000000;" y="16"></text></g><g class="highcharts-label highcharts-data-label highcharts-data-label-color-undefined " transform="translate(391,10)"><text x="5" style="font-size:11px;font-weight:bold;color:#000000;fill:#000000;" y="16"></text></g><g class="highcharts-label highcharts-data-label highcharts-data-label-color-undefined " transform="translate(378,15)"><text x="5" style="font-size:11px;font-weight:bold;color:#000000;fill:#000000;" y="16"><tspan x="5" y="16" class="highcharts-text-outline" fill="#FFFFFF" stroke="#FFFFFF" stroke-width="2px" stroke-linejoin="round">28 557</tspan><tspan x="5" y="16">28 557</tspan></text></g></g><g class="highcharts-axis-labels highcharts-xaxis-labels "><text x="63.07843137254902" style="color:#000000;cursor:default;font-size:11px;fill:#000000;" text-anchor="middle" transform="translate(0,0)" y="368" opacity="1"><tspan>1990</tspan></text><text x="144.6470588235294" style="color:#000000;cursor:default;font-size:11px;fill:#000000;" text-anchor="middle" transform="translate(0,0)" y="368" opacity="1"><tspan>1995</tspan></text><text x="226.21568627450978" style="color:#000000;cursor:default;font-size:11px;fill:#000000;" text-anchor="middle" transform="translate(0,0)" y="368" opacity="1"><tspan>2000</tspan></text><text x="307.78431372549016" style="color:#000000;cursor:default;font-size:11px;fill:#000000;" text-anchor="middle" transform="translate(0,0)" y="368" opacity="1"><tspan>2005</tspan></text><text x="389.35294117647055" style="color:#000000;cursor:default;font-size:11px;fill:#000000;" text-anchor="middle" transform="translate(0,0)" y="368" opacity="1"><tspan>2010</tspan></text><text x="462.78125" style="color:#000000;cursor:default;font-size:11px;fill:#000000;" text-anchor="middle" transform="translate(0,0)" y="368" opacity="1"><tspan>2015</tspan></text></g><g class="highcharts-axis-labels highcharts-yaxis-labels "><text x="44" style="color:#000000;cursor:default;font-size:11px;fill:#000000;" text-anchor="end" transform="translate(0,0)" y="354" opacity="1"><tspan>0</tspan></text><text x="44" style="color:#000000;cursor:default;font-size:11px;fill:#000000;" text-anchor="end" transform="translate(0,0)" y="302" opacity="1"><tspan>5 000</tspan></text><text x="44" style="color:#000000;cursor:default;font-size:11px;fill:#000000;" text-anchor="end" transform="translate(0,0)" y="251" opacity="1"><tspan>10 000</tspan></text><text x="44" style="color:#000000;cursor:default;font-size:11px;fill:#000000;" text-anchor="end" transform="translate(0,0)" y="200" opacity="1"><tspan>15 000</tspan></text><text x="44" style="color:#000000;cursor:default;font-size:11px;fill:#000000;" text-anchor="end" transform="translate(0,0)" y="148" opacity="1"><tspan>20 000</tspan></text><text x="44" style="color:#000000;cursor:default;font-size:11px;fill:#000000;" text-anchor="end" transform="translate(0,0)" y="97" opacity="1"><tspan>25 000</tspan></text><text x="44" style="color:#000000;cursor:default;font-size:11px;fill:#000000;" text-anchor="end" transform="translate(0,0)" y="46" opacity="1"><tspan>30 000</tspan></text></g><text x="10" class="highcharts-credits" text-anchor="start" style="cursor:default;color:#000000;font-size:10px;fill:#000000;" y="400"><tspan>Quelle: Grundbuch- und Vermessungsamt  Basel-Stadt</tspan></text></svg>

<svg class="highcharts-root" xmlns="http://www.w3.org/2000/svg" width="485" height="415" font-family="arial" font-size="12">
    <defs>
        <clipPath id="a">
            <path fill="none" d="M0 0h416v308H0z"/>
        </clipPath>
    </defs>
    <rect fill="#fbfbfb" class="highcharts-background" width="485" height="415" rx="0" ry="0"/>
    <path fill="none" class="highcharts-plot-background" d="M59 41h416v308H59z"/>
    <g class="highcharts-grid highcharts-xaxis-grid">
        <path fill="none" class="highcharts-grid-line" d="M62.5 41v308m82-308v308m81-308v308m82-308v308m81-308v308m82-308v308"/>
    </g>
    <g class="highcharts-grid highcharts-yaxis-grid">
        <path fill="none" stroke="#B9CFD7" stroke-width=".5" class="highcharts-grid-line" d="M59 349.25h416m-416-51h416m-416-52h416m-416-51h416m-416-51h416m-416-52h416M59 40.75h416"/>
    </g>
    <path fill="none" class="highcharts-plot-border" d="M59 41h416v308H59z"/>
    <g class="highcharts-axis highcharts-xaxis">
        <path fill="none" class="highcharts-axis-line" stroke="#B9CFD7" stroke-width=".5" d="M59 349.25h416"/>
    </g>
    <g class="highcharts-axis highcharts-yaxis">
        <path fill="none" class="highcharts-axis-line" d="M59 41v308"/>
    </g>
    <g class="highcharts-series-group">
        <g class="highcharts-series highcharts-series-0 highcharts-line-series highcharts-color-undefined" transform="translate(59 41)" clip-path="url(#a)">
            <path fill="none" d="M4.078 168.6l16.314-7.208 16.314-3.768 16.314-5.287 16.313-6.15 16.314-4.291 16.314-4.271 16.314-4.23 16.313-3.902 16.314-6.026 16.314-5.164 16.313-5.832 16.314-4.671 16.314-5.4 16.314-6.797 16.313-4.959 16.314-5.585 16.314-15.215 16.313-7.74 16.314-6.715 16.314-5.503 16.314-6.663 16.313-5.996 16.314-11.868 16.314-5.822 16.314-4.722" class="highcharts-graph" stroke="#008AC3" stroke-width="2" stroke-linejoin="round" stroke-linecap="round"/>
        </g>
        <g class="highcharts-markers highcharts-series-0 highcharts-line-series highcharts-color-undefined">
            <path fill="#008AC3" d="M67 210a4 4 0 1 1 0-.004zm16-8a4 4 0 1 1 0-.004zm16-3a4 4 0 1 1 0-.004zm17-6a4 4 0 1 1 0-.004zm16-6a4 4 0 1 1 0-.004zm16-4a4 4 0 1 1 0-.004zm16-4a4 4 0 1 1 0-.004zm17-5a4 4 0 1 1 0-.004zm16-4a4 4 0 1 1 0-.004zm16-6a4 4 0 1 1 0-.004zm17-5a4 4 0 1 1 0-.004zm16-6a4 4 0 1 1 0-.004zm16-4a4 4 0 1 1 0-.004zm17-6a4 4 0 1 1 0-.004zm16-6a4 4 0 1 1 0-.004zm16-5a4 4 0 1 1 0-.004zm17-6a4 4 0 1 1 0-.004zm16-15a4 4 0 1 1 0-.004zm16-8a4 4 0 1 1 0-.004zm17-7a4 4 0 1 1 0-.004zm16-5a4 4 0 1 1 0-.004zm16-7a4 4 0 1 1 0-.004zm16-6a4 4 0 1 1 0-.004zm17-12a4 4 0 1 1 0-.004zm16-5a4 4 0 1 1 0-.004zm16-5a4 4 0 1 1 0-.004z" class="highcharts-point"/>
        </g>
    </g>
    <text x="10" class="highcharts-title" y="21" color="#000" font-size="14" font-weight="700">
        <tspan>Grundpfandbelastung in Mio. Franken seit 1990</tspan>
    </text>
    <g class="highcharts-data-labels highcharts-series-0 highcharts-line-series highcharts-color-undefined">
        <text x="5" y="16" font-size="11" font-weight="700" color="#000" transform="translate(54 187)" class="highcharts-label highcharts-data-label highcharts-data-label-color-undefined">
            <tspan x="5" y="16" class="highcharts-text-outline" fill="#FFF" stroke="#FFF" stroke-width="2" stroke-linejoin="round">13 578</tspan><tspan x="5" y="16">13 578</tspan>
        </text>
        <text x="5" y="16" font-size="11" font-weight="700" color="#000" transform="translate(437 56)" class="highcharts-label highcharts-data-label highcharts-data-label-color-undefined">
            <tspan x="5" y="16" class="highcharts-text-outline" fill="#FFF" stroke="#FFF" stroke-width="2" stroke-linejoin="round">28 557</tspan><tspan x="5" y="16">28 557</tspan>
        </text>
    </g>
    <g class="highcharts-axis-labels highcharts-xaxis-labels" text-anchor="middle" color="#000" cursor="default" font-size="11">
        <text x="63.078" y="368">
            <tspan>1990</tspan>
        </text>
        <text x="144.647" y="368">
            <tspan>1995</tspan>
        </text>
        <text x="226.216" y="368">
            <tspan>2000</tspan>
        </text>
        <text x="307.784" y="368">
            <tspan>2005</tspan>
        </text>
        <text x="389.353" y="368">
            <tspan>2010</tspan>
        </text>
        <text x="462.781" y="368">
            <tspan>2015</tspan>
        </text>
    </g>
    <g class="highcharts-axis-labels highcharts-yaxis-labels" text-anchor="end" color="#000" cursor="default" font-size="11">
        <text x="44" y="354">
            <tspan>0</tspan>
        </text>
        <text x="44" y="302">
            <tspan>5 000</tspan>
        </text>
        <text x="44" y="251">
            <tspan>10 000</tspan>
        </text>
        <text x="44" y="200">
            <tspan>15 000</tspan>
        </text>
        <text x="44" y="148">
            <tspan>20 000</tspan>
        </text>
        <text x="44" y="97">
            <tspan>25 000</tspan>
        </text>
        <text x="44" y="46">
            <tspan>30 000</tspan>
        </text>
    </g>
    <text x="10" class="highcharts-credits" y="400" cursor="default" color="#000" font-size="10">
        <tspan>Quelle: Grundbuch- und Vermessungsamt Basel-Stadt</tspan>
    </text>
</svg>
